X:133
T: Guafeng luoyu bu jiu qing
N: C1627
O: China, Zhejiang, Zhoushan
S: III, 639]
R: Xiaodiao, Kudiao]
M: 2/4
L: 1/16
K: C
gdz2gdz2 | g2d6- | d8
cd3cd3 | c2e2d2d2- | d8
cA2zcAz2 | c2A6- | A8
G2A2G2A2 | G2A2G2D2- | D8
D2D2D2D2 | F2A2G2G2- | G8
F2F2D2D2 | C4D4- | D8- | D8

